%
(Header)
(Generated by gcodetools from Inkscape.)
(Using default header. To add your own header create file "header" in the output dir.)
M3
(Header end.)
G21 (All units in mm)

(Start cutting path id: path967)
(Change tool to Default tool)

G00 Z5.000000
G00 X4.947289 Y-0.402850

G01 Z-0.125000 F100.0(Penetrate)
G02 X5.535982 Y-0.667596 Z-0.125000 I-0.576659 J-2.069153 F400.000000
G02 X5.963289 Y-1.059020 Z-0.125000 I-0.939230 J-1.454284
G02 X6.229435 Y-1.561104 Z-0.125000 I-1.211836 J-0.963955
G02 X6.333706 Y-2.244350 Z-0.125000 I-2.186380 J-0.683246
G02 X6.133371 Y-3.103995 Z-0.125000 I-1.944547 J-0.000000
G02 X5.603456 Y-3.726020 Z-0.125000 I-1.494823 J0.736733
G02 X4.831554 Y-4.082760 Z-0.125000 I-1.306021 J1.812450
G02 X3.497373 Y-4.244600 Z-0.125000 I-1.334181 J5.418441
G01 X-0.037460 Y-4.244600 Z-0.125000
G01 X-0.037460 Y3.163730 Z-0.125000
G01 X3.285706 Y3.163730 Z-0.125000
G02 X4.504501 Y3.008191 Z-0.125000 I0.000000 J-4.852977
G02 X5.243623 Y2.655730 Z-0.125000 I-0.541343 J-2.086425
G02 X5.753690 Y2.051775 Z-0.125000 I-0.975321 J-1.341066
G02 X5.942123 Y1.248150 Z-0.125000 I-1.619423 J-0.803625
G02 X5.866904 Y0.688358 Z-0.125000 I-2.120617 J-0.000000
G02 X5.666956 Y0.242730 Z-0.125000 I-1.529527 J0.418607
G02 X5.355131 Y-0.128154 Z-0.125000 I-1.467046 J0.916910
G02 X4.947289 Y-0.402850 Z-0.125000 I-1.189674 J1.326201
G01 X4.947289 Y-0.402850 Z-0.125000
G00 Z5.000000

(Change tool to Default tool)

G00 Z5.000000
G00 X1.020873 Y2.306480

G01 Z-0.125000 F100.0(Penetrate)
G01 X1.020873 Y-0.064190 Z-0.125000 F400.000000
G01 X3.190456 Y-0.064190 Z-0.125000
G03 X3.976944 Y0.027846 Z-0.125000 I0.000000 J3.406445
G03 X4.439289 Y0.232150 Z-0.125000 I-0.320477 J1.350552
G03 X4.761522 Y0.603219 Z-0.125000 I-0.561196 J0.812784
G03 X4.883789 Y1.121150 Z-0.125000 I-1.035861 J0.517931
G03 X4.760628 Y1.637315 Z-0.125000 I-1.143195 J-0.000000
G03 X4.439289 Y1.999560 Z-0.125000 I-0.849363 J-0.429801
G03 X3.975167 Y2.211466 Z-0.125000 I-0.791062 J-1.118384
G03 X3.190456 Y2.306480 Z-0.125000 I-0.784710 J-3.192924
G01 X1.020873 Y2.306480 Z-0.125000
G00 Z5.000000

(Change tool to Default tool)

G00 Z5.000000
G00 X3.455039 Y-3.387350

G01 Z-0.125000 F100.0(Penetrate)
G03 X4.326652 Y-3.293132 Z-0.125000 I0.000000 J4.078778 F400.000000
G03 X4.809706 Y-3.091020 Z-0.125000 I-0.310946 J1.421483
G03 X5.134303 Y-2.723946 Z-0.125000 I-0.502042 J0.771001
G03 X5.264789 Y-2.159690 Z-0.125000 I-1.154753 J0.564256
G03 X4.837199 Y-1.349030 Z-0.125000 I-0.982252 J0.000000
G03 X3.455039 Y-0.921440 Z-0.125000 I-1.382160 J-2.020080
G01 X1.020873 Y-0.921440 Z-0.125000
G01 X1.020873 Y-3.387350 Z-0.125000
G01 X3.455039 Y-3.387350 Z-0.125000
G00 Z5.000000

(End cutting path id: path967)


(Start cutting path id: path969)
(Change tool to Default tool)

G00 Z5.000000
G00 X10.236971 Y-4.308100

G01 Z-0.125000 F100.0(Penetrate)
G02 X9.426391 Y-4.209679 Z-0.125000 I-0.000000 J3.387116 F400.000000
G02 X8.734138 Y-3.937690 Z-0.125000 I0.672550 J2.728678
G02 X8.137786 Y-3.495014 Z-0.125000 I1.375853 J2.476513
G02 X7.686388 Y-2.921690 Z-0.125000 I1.903777 J1.963270
G02 X7.414411 Y-2.239653 Z-0.125000 I2.384729 J1.346213
G02 X7.315971 Y-1.440020 Z-0.125000 I3.198538 J0.799633
G02 X7.415032 Y-0.640921 Z-0.125000 I3.272617 J-0.000000
G02 X7.686388 Y0.031060 Z-0.125000 I2.570631 J-0.647283
G02 X8.140389 Y0.611917 Z-0.125000 I2.328067 J-1.351774
G02 X8.734138 Y1.047060 Z-0.125000 I1.868468 J-1.926858
G02 X9.426393 Y1.319057 Z-0.125000 I1.364812 J-2.456639
G02 X10.236971 Y1.417480 Z-0.125000 I0.810578 J-3.288602
G02 X11.047030 Y1.318443 Z-0.125000 I0.000000 J-3.362388
G02 X11.729221 Y1.047060 Z-0.125000 I-0.655625 J-2.641208
G02 X12.321132 Y0.610952 Z-0.125000 I-1.250233 J-2.316630
G02 X12.766388 Y0.031060 Z-0.125000 I-1.821629 J-1.859581
G02 X13.045759 Y-0.642273 Z-0.125000 I-2.251653 J-1.328851
G02 X13.147388 Y-1.440020 Z-0.125000 I-3.080184 J-0.797747
G02 X13.046392 Y-2.238325 Z-0.125000 I-3.205521 J0.000000
G02 X12.766388 Y-2.921690 Z-0.125000 I-2.614985 J0.672423
G02 X12.323738 Y-3.494033 Z-0.125000 I-2.291002 J1.314517
G02 X11.729221 Y-3.937690 Z-0.125000 I-1.942859 J1.983335
G02 X11.047031 Y-4.209065 Z-0.125000 I-1.337807 J2.369874
G02 X10.236971 Y-4.308100 Z-0.125000 I-0.810060 J3.263444
G01 X10.236971 Y-4.308100 Z-0.125000
G00 Z5.000000

(Change tool to Default tool)

G00 Z5.000000
G00 X10.236971 Y-3.419100

G01 Z-0.125000 F100.0(Penetrate)
G03 X10.759368 Y-3.354106 Z-0.125000 I-0.000000 J2.131924 F400.000000
G03 X11.200054 Y-3.175690 Z-0.125000 I-0.426096 J1.685904
G03 X11.584785 Y-2.873889 Z-0.125000 I-0.913674 J1.560861
G03 X11.877388 Y-2.477190 Z-0.125000 I-1.319506 J1.279523
G03 X12.055315 Y-2.005686 Z-0.125000 I-1.709837 J0.914548
G03 X12.120804 Y-1.440020 Z-0.125000 I-2.410243 J0.565666
G03 X12.054716 Y-0.874851 Z-0.125000 I-2.449627 J-0.000000
G03 X11.877388 Y-0.413440 Z-0.125000 I-1.798748 J-0.426507
G03 X11.582205 Y-0.009088 Z-0.125000 I-1.588217 J-0.849500
G03 X11.200054 Y0.285060 Z-0.125000 I-1.199803 J-1.163446
G03 X10.759367 Y0.463484 Z-0.125000 I-0.866791 J-1.507441
G03 X10.236971 Y0.528480 Z-0.125000 I-0.522396 J-2.066841
G03 X9.714045 Y0.464104 Z-0.125000 I0.000000 J-2.156049
G03 X9.263305 Y0.285060 Z-0.125000 I0.443106 J-1.772396
G03 X8.888697 Y-0.006458 Z-0.125000 I0.850929 J-1.479919
G03 X8.585971 Y-0.413440 Z-0.125000 I1.399392 J-1.356987
G03 X8.408644 Y-0.874851 Z-0.125000 I1.621420 J-0.887918
G03 X8.342555 Y-1.440020 Z-0.125000 I2.383539 J-0.565169
G03 X8.408044 Y-2.005686 Z-0.125000 I2.475733 J-0.000000
G03 X8.585971 Y-2.477190 Z-0.125000 I1.887764 J0.443044
G03 X8.886130 Y-2.876503 Z-0.125000 I1.733440 J0.990537
G03 X9.263305 Y-3.175690 Z-0.125000 I1.331208 J1.290869
G03 X9.714044 Y-3.354726 Z-0.125000 I0.893836 J1.593402
G03 X10.236971 Y-3.419100 Z-0.125000 I0.522927 J2.091764
G01 X10.236971 Y-3.419100 Z-0.125000
G00 Z5.000000

(End cutting path id: path969)


(Start cutting path id: path971)
(Change tool to Default tool)

G00 Z5.000000
G00 X16.161157 Y-4.308100

G01 Z-0.125000 F100.0(Penetrate)
G02 X15.479649 Y-4.261971 Z-0.125000 I0.000000 J5.057407 F400.000000
G02 X14.838240 Y-4.128190 Z-0.125000 I0.627057 J4.610884
G02 X14.227156 Y-3.891897 Z-0.125000 I1.215625 J4.052084
G02 X13.843407 Y-3.651940 Z-0.125000 I0.871709 J1.820903
G01 X14.266740 Y-2.847600 Z-0.125000
G03 X14.655260 Y-3.075269 Z-0.125000 I1.452772 J2.033832
G03 X15.166323 Y-3.270940 Z-0.125000 I1.571724 J3.339860
G03 X15.701278 Y-3.390256 Z-0.125000 I1.094513 J3.648380
G03 X16.235240 Y-3.429690 Z-0.125000 I0.533962 J3.595347
G03 X17.288920 Y-3.149870 Z-0.125000 I-0.000000 J2.123760
G03 X17.568740 Y-2.667690 Z-0.125000 I-0.275531 J0.482180
G03 X17.519477 Y-2.436938 Z-0.125000 I-0.565065 J0.000000
G03 X17.388823 Y-2.265520 Z-0.125000 I-0.430393 J-0.192543
G03 X17.195808 Y-2.143931 Z-0.125000 I-0.573430 J-0.696289
G03 X16.933740 Y-2.053850 Z-0.125000 I-0.561384 J-1.206955
G03 X16.667121 Y-1.988821 Z-0.125000 I-1.093886 J-3.905854
G03 X16.171740 Y-1.895100 Z-0.125000 I-2.792016 J-13.401678
G02 X15.499171 Y-1.769017 Z-0.125000 I1.742149 J11.150096
G02 X15.060490 Y-1.651690 Z-0.125000 I1.063394 J4.854759
G02 X14.667585 Y-1.466258 Z-0.125000 I0.531336 J1.634799
G02 X14.330240 Y-1.186020 Z-0.125000 I0.941750 J1.476824
G02 X14.113709 Y-0.822253 Z-0.125000 I0.723966 J0.677267
G02 X14.023323 Y-0.265270 Z-0.125000 I1.670947 J0.556983
G02 X14.189259 Y0.411501 Z-0.125000 I1.463077 J-0.000000
G02 X14.658323 Y0.951810 Z-0.125000 I1.367670 J-0.713569
G02 X15.338303 Y1.280082 Z-0.125000 I1.226939 J-1.673087
G02 X16.362240 Y1.417480 Z-0.125000 I1.023937 J-3.746651
G02 X16.919046 Y1.383464 Z-0.125000 I0.000000 J-4.574237
G02 X17.484073 Y1.279900 Z-0.125000 I-0.590428 J-4.814372
G02 X18.028687 Y1.104534 Z-0.125000 I-0.961077 J-3.918051
G02 X18.404823 Y0.909480 Z-0.125000 I-0.825727 J-2.052504
G01 X17.970907 Y0.105150 Z-0.125000
G03 X17.247384 Y0.428940 Z-0.125000 I-1.412479 J-2.185981
G03 X16.351657 Y0.549650 Z-0.125000 I-0.895727 J-3.263007
G03 X15.725175 Y0.483047 Z-0.125000 I0.000000 J-2.979699
G03 X15.367407 Y0.337980 Z-0.125000 I0.235244 J-1.093870
G03 X15.112993 Y0.079613 Z-0.125000 I0.413543 J-0.661660
G03 X15.028740 Y-0.222940 Z-0.125000 I0.501106 J-0.302553
G03 X15.081315 Y-0.473475 Z-0.125000 I0.623230 J-0.000000
G03 X15.219240 Y-0.656850 Z-0.125000 I0.458475 J0.201285
G03 X15.422979 Y-0.790100 Z-0.125000 I0.675943 J0.811132
G03 X15.684907 Y-0.889690 Z-0.125000 I0.625654 J1.251273
G03 X15.972057 Y-0.957516 Z-0.125000 I1.700756 J6.558583
G03 X16.478657 Y-1.059020 Z-0.125000 I4.334685 J20.319234
G02 X17.151073 Y-1.195025 Z-0.125000 I-1.979752 J-11.518223
G02 X17.568740 Y-1.313020 Z-0.125000 I-1.061501 J-4.555606
G02 X17.961365 Y-1.489475 Z-0.125000 I-0.473746 J-1.579152
G02 X18.288407 Y-1.757520 Z-0.125000 I-0.836041 J-1.353592
G02 X18.497574 Y-2.109378 Z-0.125000 I-0.702634 J-0.655791
G02 X18.584740 Y-2.646520 Z-0.125000 I-1.611429 J-0.537142
G02 X18.414859 Y-3.319600 Z-0.125000 I-1.418333 J-0.000000
G02 X17.928573 Y-3.863600 Z-0.125000 I-1.379314 J0.743632
G02 X17.241396 Y-4.174344 Z-0.125000 I-1.205753 J1.751212
G02 X16.161157 Y-4.308100 Z-0.125000 I-1.080239 J4.295234
G01 X16.161157 Y-4.308100 Z-0.125000
G00 Z5.000000

(End cutting path id: path971)


(Start cutting path id: path973)
(Change tool to Default tool)

G00 Z5.000000
G00 X23.018661 Y-3.916520

G01 Z-0.125000 F100.0(Penetrate)
G02 X22.781028 Y-4.079541 Z-0.125000 I-0.875231 J1.021102 F400.000000
G02 X22.468328 Y-4.212850 Z-0.125000 I-0.887184 J1.647646
G02 X22.136800 Y-4.283942 Z-0.125000 I-0.662361 J2.280268
G02 X21.790995 Y-4.308150 Z-0.125000 I-0.345805 J2.457768
G02 X20.998717 Y-4.174679 Z-0.125000 I0.000000 J2.418198
G02 X20.478661 Y-3.853070 Z-0.125000 I0.458894 J1.323333
G02 X20.149878 Y-3.340367 Z-0.125000 I0.947076 J0.969107
G02 X20.012995 Y-2.551320 Z-0.125000 I2.205749 J0.789047
G01 X20.012995 Y0.528430 Z-0.125000
G01 X19.060495 Y0.528430 Z-0.125000
G01 X19.060495 Y1.364510 Z-0.125000
G01 X20.012995 Y1.364510 Z-0.125000
G01 X20.012995 Y2.592180 Z-0.125000
G01 X21.028995 Y2.592180 Z-0.125000
G01 X21.028995 Y1.364510 Z-0.125000
G01 X22.637661 Y1.364510 Z-0.125000
G01 X22.637661 Y0.528430 Z-0.125000
G01 X21.028995 Y0.528430 Z-0.125000
G01 X21.028995 Y-2.508990 Z-0.125000
G03 X21.095636 Y-2.938224 Z-0.125000 I1.415661 J0.000000
G03 X21.251245 Y-3.207490 Z-0.125000 I0.691507 J0.220025
G03 X21.514234 Y-3.380324 Z-0.125000 I0.507010 J0.484978
G03 X21.907411 Y-3.450900 Z-0.125000 I0.393177 J1.059896
G03 X22.347850 Y-3.379428 Z-0.125000 I-0.000000 J1.392805
G03 X22.701161 Y-3.186320 Z-0.125000 I-0.358642 J1.075940
G01 X23.018661 Y-3.916520 Z-0.125000
G00 Z5.000000

(End cutting path id: path973)


(Start cutting path id: path975)
(Change tool to Default tool)

G00 Z5.000000
G00 X26.463370 Y-4.308100

G01 Z-0.125000 F100.0(Penetrate)
G02 X25.652789 Y-4.209679 Z-0.125000 I-0.000000 J3.387124 F400.000000
G02 X24.960536 Y-3.937690 Z-0.125000 I0.672549 J2.728676
G02 X24.364183 Y-3.495014 Z-0.125000 I1.375853 J2.476513
G02 X23.912786 Y-2.921690 Z-0.125000 I1.903777 J1.963270
G02 X23.640809 Y-2.239653 Z-0.125000 I2.384734 J1.346212
G02 X23.542370 Y-1.440020 Z-0.125000 I3.198547 J0.799633
G02 X23.641430 Y-0.640920 Z-0.125000 I3.272625 J-0.000000
G02 X23.912786 Y0.031060 Z-0.125000 I2.570635 J-0.647283
G02 X24.366786 Y0.611917 Z-0.125000 I2.328067 J-1.351774
G02 X24.960536 Y1.047060 Z-0.125000 I1.868468 J-1.926858
G02 X25.652790 Y1.319057 Z-0.125000 I1.364811 J-2.456637
G02 X26.463370 Y1.417480 Z-0.125000 I0.810580 J-3.288610
G02 X27.273429 Y1.318443 Z-0.125000 I0.000000 J-3.362388
G02 X27.955620 Y1.047060 Z-0.125000 I-0.655625 J-2.641208
G02 X28.547530 Y0.610952 Z-0.125000 I-1.250231 J-2.316626
G02 X28.992786 Y0.031060 Z-0.125000 I-1.821624 J-1.859574
G02 X29.272157 Y-0.642273 Z-0.125000 I-2.251653 J-1.328851
G02 X29.373786 Y-1.440020 Z-0.125000 I-3.080184 J-0.797747
G02 X29.272790 Y-2.238325 Z-0.125000 I-3.205521 J0.000000
G02 X28.992786 Y-2.921690 Z-0.125000 I-2.614985 J0.672423
G02 X28.550137 Y-3.494033 Z-0.125000 I-2.290996 J1.314510
G02 X27.955620 Y-3.937690 Z-0.125000 I-1.942856 J1.983331
G02 X27.273430 Y-4.209065 Z-0.125000 I-1.337807 J2.369874
G02 X26.463370 Y-4.308100 Z-0.125000 I-0.810060 J3.263444
G01 X26.463370 Y-4.308100 Z-0.125000
G00 Z5.000000

(Change tool to Default tool)

G00 Z5.000000
G00 X26.463370 Y-3.419100

G01 Z-0.125000 F100.0(Penetrate)
G03 X26.985767 Y-3.354106 Z-0.125000 I-0.000000 J2.131924 F400.000000
G03 X27.426453 Y-3.175690 Z-0.125000 I-0.426096 J1.685904
G03 X27.811183 Y-2.873889 Z-0.125000 I-0.913671 J1.560856
G03 X28.103786 Y-2.477190 Z-0.125000 I-1.319501 J1.279515
G03 X28.281714 Y-2.005686 Z-0.125000 I-1.709831 J0.914549
G03 X28.347203 Y-1.440020 Z-0.125000 I-2.410233 J0.565666
G03 X28.281114 Y-0.874851 Z-0.125000 I-2.449617 J0.000000
G03 X28.103786 Y-0.413440 Z-0.125000 I-1.798744 J-0.426508
G03 X27.808604 Y-0.009088 Z-0.125000 I-1.588211 J-0.849493
G03 X27.426453 Y0.285060 Z-0.125000 I-1.199800 J-1.163442
G03 X26.985766 Y0.463484 Z-0.125000 I-0.866791 J-1.507441
G03 X26.463370 Y0.528480 Z-0.125000 I-0.522396 J-2.066841
G03 X25.940444 Y0.464104 Z-0.125000 I-0.000000 J-2.156053
G03 X25.489703 Y0.285060 Z-0.125000 I0.443107 J-1.772404
G03 X25.115095 Y-0.006457 Z-0.125000 I0.850929 J-1.479917
G03 X24.812370 Y-0.413440 Z-0.125000 I1.399397 J-1.356990
G03 X24.635042 Y-0.874851 Z-0.125000 I1.621415 J-0.887919
G03 X24.568953 Y-1.440020 Z-0.125000 I2.383528 J-0.565169
G03 X24.634442 Y-2.005686 Z-0.125000 I2.475722 J-0.000000
G03 X24.812370 Y-2.477190 Z-0.125000 I1.887759 J0.443045
G03 X25.112529 Y-2.876503 Z-0.125000 I1.733446 J0.990540
G03 X25.489703 Y-3.175690 Z-0.125000 I1.331208 J1.290868
G03 X25.940442 Y-3.354726 Z-0.125000 I0.893839 J1.593409
G03 X26.463370 Y-3.419100 Z-0.125000 I0.522928 J2.091768
G01 X26.463370 Y-3.419100 Z-0.125000
G00 Z5.000000

(End cutting path id: path975)


(Start cutting path id: path977)
(Change tool to Default tool)

G00 Z5.000000
G00 X33.773972 Y1.417480

G01 Z-0.125000 F100.0(Penetrate)
G02 X34.769296 Y1.239813 Z-0.125000 I0.000000 J-2.876835 F400.000000
G02 X35.467305 Y0.793060 Z-0.125000 I-0.668725 J-1.813481
G02 X35.912311 Y0.098639 Z-0.125000 I-1.244221 J-1.287133
G02 X36.102305 Y-1.016690 Z-0.125000 I-3.178687 J-1.115329
G01 X36.102305 Y-4.244600 Z-0.125000
G01 X35.086305 Y-4.244600 Z-0.125000
G01 X35.086305 Y-1.133100 Z-0.125000
G03 X34.966900 Y-0.365819 Z-0.125000 I-2.524924 J-0.000000
G03 X34.694722 Y0.094560 Z-0.125000 I-1.141085 J-0.363969
G03 X34.251217 Y0.386482 Z-0.125000 I-0.846327 J-0.802927
G03 X33.572889 Y0.507310 Z-0.125000 I-0.678328 J-1.843661
G03 X32.805758 Y0.368556 Z-0.125000 I0.000000 J-2.190010
G03 X32.271139 Y0.020480 Z-0.125000 I0.513708 J-1.373621
G03 X31.936329 Y-0.514356 Z-0.125000 I0.995239 J-0.995239
G03 X31.794889 Y-1.355350 Z-0.125000 I2.429531 J-0.840994
G01 X31.794889 Y-4.244600 Z-0.125000
G01 X30.778889 Y-4.244600 Z-0.125000
G01 X30.778889 Y1.364560 Z-0.125000
G01 X31.752555 Y1.364560 Z-0.125000
G01 X31.752555 Y0.517900 Z-0.125000
G02 X32.106277 Y0.894936 Z-0.125000 I1.535474 J-1.086085
G02 X32.578055 Y1.184650 Z-0.125000 I1.355215 J-1.677886
G02 X33.120474 Y1.354458 Z-0.125000 I1.032207 J-2.345960
G02 X33.773972 Y1.417480 Z-0.125000 I0.653498 J-3.356654
G01 X33.773972 Y1.417480 Z-0.125000
G00 Z5.000000

(End cutting path id: path977)


(Start cutting path id: path979)
(Change tool to Default tool)

G00 Z5.000000
G00 X40.993626 Y3.163730

G01 Z-0.125000 F100.0(Penetrate)
G01 X44.115709 Y3.163730 Z-0.125000 F400.000000
G02 X45.260040 Y3.037491 Z-0.125000 I-0.000000 J-5.249683
G02 X46.200625 Y2.698060 Z-0.125000 I-0.863291 J-3.865161
G02 X47.012743 Y2.128464 Z-0.125000 I-1.633420 J-3.192641
G02 X47.608209 Y1.385730 Z-0.125000 I-2.252321 J-2.415803
G02 X47.979828 Y0.511466 Z-0.125000 I-2.827515 J-1.717991
G02 X48.116209 Y-0.540440 Z-0.125000 I-3.988482 J-1.051906
G02 X47.980474 Y-1.592924 Z-0.125000 I-4.148329 J0.000000
G02 X47.608209 Y-2.477190 Z-0.125000 I-3.279882 J0.860297
G02 X47.014455 Y-3.210584 Z-0.125000 I-2.827979 J1.682476
G02 X46.200625 Y-3.778940 Z-0.125000 I-2.472443 J2.673455
G02 X45.260041 Y-4.118363 Z-0.125000 I-1.803868 J3.525790
G02 X44.115709 Y-4.244600 Z-0.125000 I-1.144332 J5.123560
G01 X40.993626 Y-4.244600 Z-0.125000
G01 X40.993626 Y3.163730 Z-0.125000
G00 Z5.000000

(Change tool to Default tool)

G00 Z5.000000
G00 X44.052209 Y-3.323850

G01 Z-0.125000 F100.0(Penetrate)
G03 X44.928528 Y-3.227970 Z-0.125000 I-0.000000 J4.052592 F400.000000
G03 X45.629125 Y-2.974600 Z-0.125000 I-0.625875 J2.825920
G03 X46.244259 Y-2.547625 Z-0.125000 I-1.241149 J2.444689
G03 X46.687459 Y-2.000940 Z-0.125000 I-1.639745 J1.782345
G03 X46.958188 Y-1.338990 Z-0.125000 I-2.215930 J1.292624
G03 X47.057875 Y-0.540440 Z-0.125000 I-3.148573 J0.798550
G03 X46.957554 Y0.257543 Z-0.125000 I-3.223866 J-0.000000
G03 X46.687459 Y0.909480 Z-0.125000 I-2.404677 J-0.614331
G03 X46.242534 Y1.465497 Z-0.125000 I-2.102778 J-1.226621
G03 X45.629125 Y1.893730 Z-0.125000 I-1.829619 J-1.967333
G03 X44.928528 Y2.147100 Z-0.125000 I-1.326472 J-2.572551
G03 X44.052209 Y2.242980 Z-0.125000 I-0.876319 J-3.956712
G01 X42.051959 Y2.242980 Z-0.125000
G01 X42.051959 Y-3.323850 Z-0.125000
G01 X44.052209 Y-3.323850 Z-0.125000
G00 Z5.000000

(End cutting path id: path979)


(Start cutting path id: path981)
(Change tool to Default tool)

G00 Z5.000000
G00 X54.552694 Y1.364560

G01 Z-0.125000 F100.0(Penetrate)
G01 X51.832778 Y-4.805520 Z-0.125000 F400.000000
G02 X51.394012 Y-5.599855 Z-0.125000 I-3.908646 J1.640669
G02 X50.986111 Y-6.012020 Z-0.125000 I-1.416898 J0.994314
G02 X50.478549 Y-6.265622 Z-0.125000 I-0.995206 J1.357099
G02 X49.832528 Y-6.361270 Z-0.125000 I-0.646021 J2.133825
G02 X49.425670 Y-6.326725 Z-0.125000 I-0.000000 J2.413156
G02 X49.028195 Y-6.223690 Z-0.125000 I0.411435 J2.405372
G02 X48.670408 Y-6.059131 Z-0.125000 I0.570653 J1.711960
G02 X48.393195 Y-5.842690 Z-0.125000 I0.740481 J1.234134
G01 X48.827111 Y-5.080690 Z-0.125000
G03 X49.302792 Y-5.388937 Z-0.125000 I1.059470 J1.113802
G03 X49.832528 Y-5.493440 Z-0.125000 I0.529736 J1.290382
G03 X50.182835 Y-5.437522 Z-0.125000 I0.000000 J1.125240
G03 X50.446361 Y-5.292350 Z-0.125000 I-0.251984 J0.769188
G03 X50.659267 Y-5.069732 Z-0.125000 I-0.565365 J0.753819
G03 X50.901445 Y-4.625600 Z-0.125000 I-2.098922 J1.432600
G01 X51.081361 Y-4.234020 Z-0.125000
G01 X48.604861 Y1.364560 Z-0.125000
G01 X49.663195 Y1.364560 Z-0.125000
G01 X51.621111 Y-3.122770 Z-0.125000
G01 X53.557861 Y1.364560 Z-0.125000
G01 X54.552694 Y1.364560 Z-0.125000
G00 Z5.000000

(End cutting path id: path981)


(Start cutting path id: path983)
(Change tool to Default tool)

G00 Z5.000000
G00 X58.495980 Y1.417480

G01 Z-0.125000 F100.0(Penetrate)
G02 X59.491304 Y1.239813 Z-0.125000 I0.000000 J-2.876835 F400.000000
G02 X60.189313 Y0.793060 Z-0.125000 I-0.668725 J-1.813481
G02 X60.634319 Y0.098639 Z-0.125000 I-1.244221 J-1.287133
G02 X60.824313 Y-1.016690 Z-0.125000 I-3.178687 J-1.115329
G01 X60.824313 Y-4.244600 Z-0.125000
G01 X59.808313 Y-4.244600 Z-0.125000
G01 X59.808313 Y-1.133100 Z-0.125000
G03 X59.688908 Y-0.365819 Z-0.125000 I-2.524924 J-0.000000
G03 X59.416730 Y0.094560 Z-0.125000 I-1.141085 J-0.363969
G03 X58.973225 Y0.386482 Z-0.125000 I-0.846326 J-0.802926
G03 X58.294896 Y0.507310 Z-0.125000 I-0.678329 J-1.843665
G03 X57.527765 Y0.368556 Z-0.125000 I0.000000 J-2.190010
G03 X56.993146 Y0.020480 Z-0.125000 I0.513708 J-1.373621
G03 X56.658336 Y-0.514356 Z-0.125000 I0.995239 J-0.995239
G03 X56.516896 Y-1.355350 Z-0.125000 I2.429531 J-0.840994
G01 X56.516896 Y-4.244600 Z-0.125000
G01 X55.500896 Y-4.244600 Z-0.125000
G01 X55.500896 Y1.364560 Z-0.125000
G01 X56.474563 Y1.364560 Z-0.125000
G01 X56.474563 Y0.517900 Z-0.125000
G02 X56.828285 Y0.894936 Z-0.125000 I1.535474 J-1.086085
G02 X57.300063 Y1.184650 Z-0.125000 I1.355215 J-1.677886
G02 X57.842482 Y1.354458 Z-0.125000 I1.032207 J-2.345960
G02 X58.495980 Y1.417480 Z-0.125000 I0.653498 J-3.356654
G01 X58.495980 Y1.417480 Z-0.125000
G00 Z5.000000

(End cutting path id: path983)


(Start cutting path id: path985)
(Change tool to Default tool)

G00 Z5.000000
G00 X64.757507 Y1.417480

G01 Z-0.125000 F100.0(Penetrate)
G02 X65.854040 Y1.245582 Z-0.125000 I0.000000 J-3.583335 F400.000000
G02 X66.535507 Y0.845980 Z-0.125000 I-0.555487 J-1.728181
G02 X66.973531 Y0.192400 Z-0.125000 I-1.121140 J-1.224950
G02 X67.159924 Y-0.857940 Z-0.125000 I-2.866186 J-1.050340
G01 X67.159924 Y-4.244600 Z-0.125000
G01 X66.196840 Y-4.244600 Z-0.125000
G01 X66.196840 Y-3.503770 Z-0.125000
G02 X65.896377 Y-3.840943 Z-0.125000 I-1.247420 J0.809144
G02 X65.466590 Y-4.107020 Z-0.125000 I-1.186298 J1.436045
G02 X64.989167 Y-4.251217 Z-0.125000 I-0.866705 J2.007138
G02 X64.355340 Y-4.308100 Z-0.125000 I-0.633827 J3.502787
G02 X63.459481 Y-4.176323 Z-0.125000 I-0.000000 J3.111049
G02 X62.841924 Y-3.853020 Z-0.125000 I0.530900 J1.765562
G02 X62.430267 Y-3.326831 Z-0.125000 I0.942012 J1.161094
G02 X62.281007 Y-2.657100 Z-0.125000 I1.427921 J0.669731
G02 X62.426810 Y-1.985078 Z-0.125000 I1.621612 J0.000000
G02 X62.820757 Y-1.471770 Z-0.125000 I1.306676 J-0.595006
G02 X63.413945 Y-1.162972 Z-0.125000 I0.985357 J-1.168688
G02 X64.535257 Y-1.016690 Z-0.125000 I1.121312 J-4.224508
G01 X66.143924 Y-1.016690 Z-0.125000
G01 X66.143924 Y-0.815600 Z-0.125000
G03 X66.032725 Y-0.208357 Z-0.125000 I-1.713636 J-0.000000
G03 X65.762924 Y0.189810 Z-0.125000 I-0.972661 J-0.368590
G03 X65.340551 Y0.432699 Z-0.125000 I-0.754097 J-0.822652
G03 X64.641090 Y0.539060 Z-0.125000 I-0.699461 J-2.246756
G03 X64.150970 Y0.496759 Z-0.125000 I0.000000 J-2.860543
G03 X63.667424 Y0.369730 Z-0.125000 I0.506214 J-2.910784
G03 X63.212447 Y0.172934 Z-0.125000 I0.907366 J-2.722097
G03 X62.863090 Y-0.064190 Z-0.125000 I0.988373 J-1.832094
G01 X62.439757 Y0.697810 Z-0.125000
G02 X62.900413 Y0.996169 Z-0.125000 I1.674055 J-2.079888
G02 X63.476924 Y1.226980 Z-0.125000 I1.553446 J-3.044737
G02 X64.087810 Y1.367940 Z-0.125000 I1.194602 J-3.782907
G02 X64.757507 Y1.417480 Z-0.125000 I0.669697 J-4.501850
G01 X64.757507 Y1.417480 Z-0.125000
G00 Z5.000000

(Change tool to Default tool)

G00 Z5.000000
G00 X64.524674 Y-3.524940

G01 Z-0.125000 F100.0(Penetrate)
G03 X65.087374 Y-3.454961 Z-0.125000 I0.000000 J2.297331 F400.000000
G03 X65.530090 Y-3.270940 Z-0.125000 I-0.402275 J1.592339
G03 X65.891607 Y-2.954667 Z-0.125000 I-0.798309 J1.277264
G03 X66.143924 Y-2.530100 Z-0.125000 I-1.226171 J1.015963
G01 X66.143924 Y-1.746940 Z-0.125000
G01 X64.577590 Y-1.746940 Z-0.125000
G03 X63.588066 Y-2.048582 Z-0.125000 I-0.000000 J-1.773865
G03 X63.286424 Y-2.614770 Z-0.125000 I0.380551 J-0.566188
G03 X63.374609 Y-2.993722 Z-0.125000 I0.858314 J-0.000000
G03 X63.614507 Y-3.281520 Z-0.125000 I0.714156 J0.351410
G03 X63.966816 Y-3.451630 Z-0.125000 I0.622021 J0.838363
G03 X64.524674 Y-3.524940 Z-0.125000 I0.557858 J2.085876
G01 X64.524674 Y-3.524940 Z-0.125000
G00 Z5.000000

(End cutting path id: path985)


(Start cutting path id: path987)
(Change tool to Default tool)

G00 Z5.000000
G00 X76.056869 Y1.417480

G01 Z-0.125000 F100.0(Penetrate)
G02 X77.042627 Y1.242267 Z-0.125000 I0.000000 J-2.860566 F400.000000
G02 X77.729035 Y0.803650 Z-0.125000 I-0.652513 J-1.777545
G02 X78.165421 Y0.110983 Z-0.125000 I-1.249402 J-1.270930
G02 X78.353452 Y-1.016690 Z-0.125000 I-3.287462 J-1.127673
G01 X78.353452 Y-4.244600 Z-0.125000
G01 X77.337452 Y-4.244600 Z-0.125000
G01 X77.337452 Y-1.133100 Z-0.125000
G03 X77.220820 Y-0.363791 Z-0.125000 I-2.595502 J-0.000000
G03 X76.956452 Y0.094560 Z-0.125000 I-1.146317 J-0.355755
G03 X76.532409 Y0.387129 Z-0.125000 I-0.821797 J-0.737511
G03 X75.887536 Y0.507310 Z-0.125000 I-0.644873 J-1.670054
G03 X75.174115 Y0.371019 Z-0.125000 I-0.000000 J-1.935366
G03 X74.659869 Y0.020480 Z-0.125000 I0.523797 J-1.320889
G03 X74.340909 Y-0.510351 Z-0.125000 I1.018483 J-0.973216
G03 X74.204786 Y-1.355350 Z-0.125000 I2.554645 J-0.844999
G01 X74.204786 Y-4.244600 Z-0.125000
G01 X73.188786 Y-4.244600 Z-0.125000
G01 X73.188786 Y-1.133100 Z-0.125000
G03 X73.072154 Y-0.363791 Z-0.125000 I-2.595502 J-0.000000
G03 X72.807786 Y0.094560 Z-0.125000 I-1.146317 J-0.355755
G03 X72.383743 Y0.387129 Z-0.125000 I-0.821797 J-0.737510
G03 X71.738869 Y0.507310 Z-0.125000 I-0.644874 J-1.670058
G03 X71.025448 Y0.371019 Z-0.125000 I-0.000000 J-1.935364
G03 X70.511202 Y0.020480 Z-0.125000 I0.523799 J-1.320894
G03 X70.192242 Y-0.510351 Z-0.125000 I1.018483 J-0.973216
G03 X70.056119 Y-1.355350 Z-0.125000 I2.554645 J-0.844999
G01 X70.056119 Y-4.244600 Z-0.125000
G01 X69.040119 Y-4.244600 Z-0.125000
G01 X69.040119 Y1.364560 Z-0.125000
G01 X70.013786 Y1.364560 Z-0.125000
G01 X70.013786 Y0.528480 Z-0.125000
G02 X70.366656 Y0.906458 Z-0.125000 I1.563244 J-1.105699
G02 X70.818119 Y1.184650 Z-0.125000 I1.272956 J-1.560389
G02 X71.329589 Y1.354306 Z-0.125000 I0.974329 J-2.081552
G02 X71.950536 Y1.417480 Z-0.125000 I0.620947 J-3.020102
G02 X72.589160 Y1.345824 Z-0.125000 I0.000000 J-2.881636
G02 X73.114702 Y1.152900 Z-0.125000 I-0.484662 J-2.132541
G02 X73.562327 Y0.826946 Z-0.125000 I-0.860355 J-1.651840
G02 X73.897869 Y0.380310 Z-0.125000 I-1.331267 J-1.349493
G02 X74.269257 Y0.806262 Z-0.125000 I1.706067 J-1.112637
G02 X74.776286 Y1.142310 Z-0.125000 I1.546326 J-1.782571
G02 X75.364569 Y1.343939 Z-0.125000 I1.140666 J-2.369047
G02 X76.056869 Y1.417480 Z-0.125000 I0.692300 J-3.221820
G01 X76.056869 Y1.417480 Z-0.125000
G00 Z5.000000

(End cutting path id: path987)


(Start cutting path id: path989)
(Change tool to Default tool)

G00 Z5.000000
G00 X80.222896 Y1.364560

G01 Z-0.125000 F100.0(Penetrate)
G01 X81.238896 Y1.364560 Z-0.125000 F400.000000
G01 X81.238896 Y-4.244600 Z-0.125000
G01 X80.222896 Y-4.244600 Z-0.125000
G01 X80.222896 Y1.364560 Z-0.125000
G00 Z5.000000

(Change tool to Default tool)

G00 Z5.000000
G00 X80.730896 Y2.444060

G01 Z-0.125000 F100.0(Penetrate)
G02 X80.454902 Y2.495102 Z-0.125000 I-0.000000 J0.771692 F400.000000
G02 X80.233480 Y2.634560 Z-0.125000 I0.239902 J0.626410
G02 X80.093013 Y2.845784 Z-0.125000 I0.454700 J0.454700
G02 X80.042980 Y3.100230 Z-0.125000 I0.621983 J0.254446
G02 X80.093013 Y3.354676 Z-0.125000 I0.672016 J0.000000
G02 X80.233480 Y3.565900 Z-0.125000 I0.595167 J-0.243476
G02 X80.456655 Y3.713646 Z-0.125000 I0.474869 J-0.474876
G02 X80.730896 Y3.766980 Z-0.125000 I0.274241 J-0.678397
G02 X81.005749 Y3.715119 Z-0.125000 I0.000000 J-0.754263
G02 X81.217730 Y3.576480 Z-0.125000 I-0.225398 J-0.576019
G02 X81.365739 Y3.372830 Z-0.125000 I-0.398142 J-0.444974
G02 X81.418813 Y3.121400 Z-0.125000 I-0.569024 J-0.251430
G02 X81.366428 Y2.857348 Z-0.125000 I-0.691678 J0.000000
G02 X81.217730 Y2.634560 Z-0.125000 I-0.632924 J0.261421
G02 X81.005749 Y2.495921 Z-0.125000 I-0.437380 J0.437380
G02 X80.730896 Y2.444060 Z-0.125000 I-0.274853 J0.702402
G01 X80.730896 Y2.444060 Z-0.125000
G00 Z5.000000

(End cutting path id: path989)


(Start cutting path id: path991)
(Change tool to Default tool)

(START OF C IN DYNAMICS)

G00 Z5.000000
G00 X85.623541 Y-4.308100

G01 Z-0.125000 F100.0(Penetrate)
G02 X84.791589 Y-4.209115 Z-0.125000 I0.000000 J3.545705 F400.000000
G02 X84.088958 Y-3.937690 Z-0.125000 I0.672445 J2.785894
G02 X83.492605 Y-3.495014 Z-0.125000 I1.375853 J2.476513
G02 X83.041208 Y-2.921690 Z-0.125000 I1.903777 J1.963270
G02 X82.761204 Y-2.238325 Z-0.125000 I2.334981 J1.355788
G02 X82.660208 Y-1.440020 Z-0.125000 I3.104525 J0.798305
G02 X82.761837 Y-0.642273 Z-0.125000 I3.181813 J0.000000
G02 X83.041208 Y0.031060 Z-0.125000 I2.531024 J-0.655518
G02 X83.495208 Y0.611917 Z-0.125000 I2.328067 J-1.351774
G02 X84.088958 Y1.047060 Z-0.125000 I1.868468 J-1.926858
G02 X84.791590 Y1.318493 Z-0.125000 I1.375085 J-2.514417
G02 X85.623541 Y1.417480 Z-0.125000 I0.831951 J-3.446622
G02 X86.365330 Y1.334500 Z-0.125000 I0.000000 J-3.357044
G02 X86.978207 Y1.110560 Z-0.125000 I-0.566881 J-2.502067
G02 X87.512693 Y0.731892 Z-0.125000 I-1.022514 J-2.009813
G02 X87.909541 Y0.221560 Z-0.125000 I-1.516579 J-1.588798
G01 X87.136957 Y-0.275850 Z-0.125000
G03 X86.832639 Y0.082057 Z-0.125000 I-1.602832 J-1.054511
G03 X86.480791 Y0.327400 Z-0.125000 I-1.082499 J-1.177453
G03 X86.076398 Y0.475492 Z-0.125000 I-0.799420 J-1.556789
G03 X85.612958 Y0.528480 Z-0.125000 I-0.463440 J-2.000143
G03 X85.079094 Y0.464115 Z-0.125000 I0.000000 J-2.246215
G03 X84.618124 Y0.285060 Z-0.125000 I0.451520 J-1.845318
G03 X84.234118 Y-0.008153 Z-0.125000 I0.841557 J-1.500205
G03 X83.930208 Y-0.413440 Z-0.125000 I1.347287 J-1.326872
G03 X83.752880 Y-0.874851 Z-0.125000 I1.621415 J-0.887919
G03 X83.686791 Y-1.440020 Z-0.125000 I2.383528 J-0.565169
G03 X83.752834 Y-2.016137 Z-0.125000 I2.545847 J-0.000000
G03 X83.930208 Y-2.487770 Z-0.125000 I1.872354 J0.434992
G03 X84.232520 Y-2.883574 Z-0.125000 I1.628956 J0.930832
G03 X84.618124 Y-3.175690 Z-0.125000 I1.251599 J1.251592
G03 X85.079093 Y-3.354738 Z-0.125000 I0.912481 J1.666315
G03 X85.612958 Y-3.419100 Z-0.125000 I0.533865 J2.181945
G03 X86.076398 Y-3.366112 Z-0.125000 I-0.000000 J2.053131
G03 X86.480791 Y-3.218020 Z-0.125000 I-0.395027 J1.704881
G03 X86.832637 Y-2.972684 Z-0.125000 I-0.730557 J1.422685
G03 X87.136957 Y-2.614770 Z-0.125000 I-1.298473 J1.412373
G01 X87.909541 Y-3.101600 Z-0.125000
G02 X87.513614 Y-3.613867 Z-0.125000 I-1.955163 J1.101991
G02 X86.978207 Y-4.001190 Z-0.125000 I-1.624351 J1.681670
G02 X86.365331 Y-4.225122 Z-0.125000 I-1.179750 J2.278186
G02 X85.623541 Y-4.308100 Z-0.125000 I-0.741790 J3.274176
G01 X85.623541 Y-4.308100 Z-0.125000
G00 Z5.000000

(End cutting path id: path991)


(Start cutting path id: path993)
(Change tool to Default tool)

G00 Z5.000000
G00 X90.823262 Y-4.308100

G01 Z-0.125000 F100.0(Penetrate)
G02 X90.141755 Y-4.261971 Z-0.125000 I-0.000000 J5.057396 F400.000000
G02 X89.500346 Y-4.128190 Z-0.125000 I0.627058 J4.610887
G02 X88.889262 Y-3.891897 Z-0.125000 I1.215628 J4.052095
G02 X88.505512 Y-3.651940 Z-0.125000 I0.871714 J1.820915
G01 X88.928846 Y-2.847600 Z-0.125000
G03 X89.317365 Y-3.075269 Z-0.125000 I1.452762 J2.033812
G03 X89.828429 Y-3.270940 Z-0.125000 I1.571721 J3.339854
G03 X90.363384 Y-3.390256 Z-0.125000 I1.094513 J3.648380
G03 X90.897346 Y-3.429690 Z-0.125000 I0.533962 J3.595347
G03 X91.951026 Y-3.149870 Z-0.125000 I-0.000000 J2.123760
G03 X92.230846 Y-2.667690 Z-0.125000 I-0.275531 J0.482180
G03 X92.181583 Y-2.436938 Z-0.125000 I-0.565065 J0.000000
G03 X92.050929 Y-2.265520 Z-0.125000 I-0.430393 J-0.192543
G03 X91.857913 Y-2.143931 Z-0.125000 I-0.573436 J-0.696301
G03 X91.595846 Y-2.053850 Z-0.125000 I-0.561384 J-1.206956
G03 X91.329226 Y-1.988821 Z-0.125000 I-1.093902 J-3.905925
G03 X90.833846 Y-1.895100 Z-0.125000 I-2.792036 J-13.401773
G02 X90.161276 Y-1.769017 Z-0.125000 I1.742142 J11.150071
G02 X89.722596 Y-1.651690 Z-0.125000 I1.063384 J4.854714
G02 X89.329690 Y-1.466258 Z-0.125000 I0.531334 J1.634798
G02 X88.992346 Y-1.186020 Z-0.125000 I0.941742 J1.476812
G02 X88.775815 Y-0.822253 Z-0.125000 I0.723966 J0.677267
G02 X88.685429 Y-0.265270 Z-0.125000 I1.670947 J0.556983
G02 X88.851365 Y0.411501 Z-0.125000 I1.463077 J0.000000
G02 X89.320429 Y0.951810 Z-0.125000 I1.367670 J-0.713569
G02 X90.000409 Y1.280082 Z-0.125000 I1.226939 J-1.673087
G02 X91.024346 Y1.417480 Z-0.125000 I1.023937 J-3.746651
G02 X91.581151 Y1.383465 Z-0.125000 I0.000000 J-4.574229
G02 X92.146179 Y1.279900 Z-0.125000 I-0.590431 J-4.814396
G02 X92.690791 Y1.104533 Z-0.125000 I-0.961070 J-3.918007
G02 X93.066924 Y0.909480 Z-0.125000 I-0.825718 J-2.052469
G01 X92.633014 Y0.105150 Z-0.125000
G03 X91.909490 Y0.428940 Z-0.125000 I-1.412481 J-2.185987
G03 X91.013762 Y0.549650 Z-0.125000 I-0.895728 J-3.263015
G03 X90.387281 Y0.483047 Z-0.125000 I-0.000000 J-2.979695
G03 X90.029512 Y0.337980 Z-0.125000 I0.235246 J-1.093876
G03 X89.775099 Y0.079613 Z-0.125000 I0.413543 J-0.661658
G03 X89.690846 Y-0.222940 Z-0.125000 I0.501108 J-0.302553
G03 X89.743421 Y-0.473475 Z-0.125000 I0.623230 J0.000000
G03 X89.881346 Y-0.656850 Z-0.125000 I0.458475 J0.201285
G03 X90.085085 Y-0.790100 Z-0.125000 I0.675946 J0.811135
G03 X90.347012 Y-0.889690 Z-0.125000 I0.625653 J1.251269
G03 X90.634162 Y-0.957516 Z-0.125000 I1.700756 J6.558583
G03 X91.140762 Y-1.059020 Z-0.125000 I4.334685 J20.319234
G02 X91.813179 Y-1.195025 Z-0.125000 I-1.979751 J-11.518232
G02 X92.230846 Y-1.313020 Z-0.125000 I-1.061498 J-4.555596
G02 X92.623467 Y-1.489474 Z-0.125000 I-0.473753 J-1.579158
G02 X92.950514 Y-1.757520 Z-0.125000 I-0.836079 J-1.353655
G02 X93.159679 Y-2.109377 Z-0.125000 I-0.702638 J-0.655788
G02 X93.246844 Y-2.646520 Z-0.125000 I-1.611447 J-0.537143
G02 X93.076963 Y-3.319601 Z-0.125000 I-1.418337 J-0.000000
G02 X92.590679 Y-3.863600 Z-0.125000 I-1.379312 J0.743629
G02 X91.903502 Y-4.174344 Z-0.125000 I-1.205753 J1.751211
G02 X90.823262 Y-4.308100 Z-0.125000 I-1.080240 J4.295240
G01 X90.823262 Y-4.308100 Z-0.125000
G00 Z5.000000

(End cutting path id: path993)
